X:1
T:Title
%%score { ( 1 3 5 ) | ( 2 4 ) }
L:1/8
M:4/4
K:Eb
V:1 treble nm="Grand Piano"
V:3 treble 
V:5 treble 
V:2 bass 
V:4 bass 
V:1
 z8[Q:1/4=90] | GGG[FA] [GB]GFE | GGG[FA] [GB]4 | cccc [Ac][GB]GE | [EG][DF][DF][CE] [B,DF]4 | %5
 BBBA G2 E2 | cccB A4 | [Fd][Fd][Fd][Ge] dcB=A |[M:5/8] [DB]-[DB]- [DB]3 |[M:3/8] Bc[Ad] | %10
[M:4/4] e4 z4 | [B,DB][CEA][DFA][CEA] .[B,DA]2 .[B,DB]2 | d4 z2 .F2 | AGGG GEGB | z2 c2- c .F3 | %15
 z2 d4 z2 | f4 z4 |[M:17/16] B/-B/-B/-B/-B/-B/-B/-B-<B z/ z/ z/ z/ z | %18
[M:4/4] e-[Ge-][Ge][Gd] [Gc]G[DEG][CEG] | [B,DB][CEA][DFA][CEA] .[B,DA]2 .[B,DB]2 | d4 z2 .F2 | %21
 AGGG GEGB | z2 e4 z2 | z2 e4 z2 | [EGB][EG][FA][GB] [Ac][AB][Ac][AB] |[M:7/8] [Ac]2 [Ad]2 [Ge]3 |] %26
V:2
 z8 | [E,B,E][E,B,E][E,B,E][E,B,] [E,B,][E,B,E][E,A,E][E,G,] | [E,B,E][E,B,E][E,B,E][E,B,] [E,E]4 | %3
 [A,EA][A,EA][A,EA][A,EA][K:bass] [E,E][E,E][E,B,E][E,G,] | [B,,B,][B,,B,][B,,B,][B,,B,] B,,2 A,2 | %5
 [G,B,E][G,B,E][F,B,D][F,B,D] [E,B,E]2 [G,B,]2 | [A,E][A,E][G,C=E][G,CE] [F,CF]4 | %7
 [B,,B,][B,,B,][B,,B,][E,B,] [F,B,F][F,=A,E][F,B,D][F,CE] |[M:5/8] [B,,B,]-[B,,B,]- [B,,B,]3 | %9
[M:3/8] [B,D][A,B,D][F,B,] |[M:4/4] B,B,B,[E,B,] B,E z C | B,,B,,B,,B,, z A z[K:treble] c | %12
 A,A,A,[B,,A,] z F B,,2 | [E,CE][E,B,E][E,B,E][E,B,E] .[E,B,E]2 z [E,G,E] | %14
 [A,E]3 [G,B,] [F,=A,] [F,A,]2[K:treble] [F,A,F] | [B,F]3 [=A,C] [G,B,] [G,B,G]2[K:bass] [E,B,] | %16
 [D,B,][B,,B,][D,B,][E,B,] [F,B,F][F,CF][F,B,F][F,=A,E] | %17
[M:17/16] z CDEF3/2[K:treble][B,DF][A,B,][K:bass][F,B,] |[M:4/4] B,B,B,[E,B,] B,EE,E, | %19
 B,,B,,B,,B,, z A z[K:treble] c | A,A,A,[B,,A,] z F B,,2 | %21
 [E,CE][E,B,E][E,B,E][E,B,E] .[E,B,E]2 z [E,G,E] | [E,B,]3 [E,B,] [E,B,]E z [E,G,E] | %23
 [C,G,]3 [C,C] [A,,A,][A,,A,][A,,=A,][A,,A,] | %24
 [B,,B,][B,,B,][B,,B,][B,,B,] [B,,B,][B,,B,][B,,B,][B,,B,] |[M:7/8] [B,,B,]2 [B,,B,]2 [E,B,]3 |] %26
V:3
 x8 | x8 | x8 | x8 | x8 | x8 | x8 | x8 |[M:5/8] x5 |[M:3/8] x3 |[M:4/4] GGG[Gd] [Gc]G[DEG][EG] | %11
 x8 | FFF[Ec] .[B,DB]2 [A,D]-[A,DF] | x8 | c2 z =E .F2 =Ac | d2 z _G =GBd[Ge] | FDF[Ge] dedc | %17
[M:17/16] [B,D]EFGA3/2Bcd |[M:4/4] .G2 z2 z4 | x8 | FFF[Ec] .[DB]2 [A,D]-[A,DF] | x8 | %22
 e2 z G GGGB | e2 z G [CA][CAe][D_Gd][EGc] | x8 |[M:7/8] x7 |] %26
V:4
 x8 | x8 | x8 | x4[K:bass] x4 | x8 | x8 | x8 | x8 |[M:5/8] x5 |[M:3/8] x3 |[M:4/4] E,4 E,2 E,2 | %11
 z4 B,,2 B,,2[K:treble] | B,,4 B,,2 z2 | x8 | x7[K:treble] x | x7[K:bass] x | x8 | %17
[M:17/16] B,,/-B,,/-B,,/-B,,/-B,,/-B,,/-B,,/-B,,-<B,,[K:treble] z/ z/ z/ z/[K:bass] z | %18
[M:4/4] E,4 E,2 z2 | z4 B,,2 B,,2[K:treble] | B,,4 [B,,A,]2 z2 | x8 | z4 z .[E,B,]3 | x8 | x8 | %25
[M:7/8] x7 |] %26
V:5
 x8 | x8 | x8 | x8 | x8 | x8 | x8 | x8 |[M:5/8] x5 |[M:3/8] x3 |[M:4/4] x8 | x8 | x8 | x8 | x8 | %15
 x8 | x8 |[M:17/16] x17/2 |[M:4/4] x8 | x8 | x8 | x8 | G4 z4 | E4 z4 | x8 |[M:7/8] x7 |] %26

